packages/flat-components/src/components/ClassroomPage/CloudRecordBtn/icons/record-started.svg

<?xml version="1.0" encoding="UTF-8"?>
<svg width="24px" height="24px" viewBox="0 0 24 24" version="1.1" xmlns="http://www.w3.org/2000/svg" xmlns:xlink="http://www.w3.org/1999/xlink">
    <title>矩形备份 25</title>
    <g id="房间内已上课状态" stroke="none" stroke-width="1" fill="none" fill-rule="evenodd" stroke-linecap="round" stroke-linejoin="round">
        <g transform="translate(-944.000000, -4.000000)" id="follow备份" stroke="#3381FF">
            <g transform="translate(944.000000, 4.000000)">
                <path d="M13,7 C14.1045695,7 15,7.8954305 15,9 L15,10.4 L17.4855042,8.90869745 C17.9590845,8.62454929 18.5733448,8.77811436 18.8574929,9.25169462 C18.9507422,9.40711003 19,9.58494643 19,9.76619038 L19,14.2338096 C19,14.7860944 18.5522847,15.2338096 18,15.2338096 C17.8187561,15.2338096 17.6409196,15.1845518 17.4855042,15.0913025 L15,13.6 L15,15 C15,16.1045695 14.1045695,17 13,17 L7,17 C5.8954305,17 5,16.1045695 5,15 L5,9 C5,7.8954305 5.8954305,7 7,7 L13,7 Z" id="路径"></path>
            </g>
        </g>
    </g>
</svg>

<svg width="24" height="24" xmlns="http://www.w3.org/2000/svg"><path d="M13 7a2 2 0 0 1 2 2v1.4l2.486-1.491A1 1 0 0 1 19 9.766v4.468a1 1 0 0 1-1.514.857L15 13.6V15a2 2 0 0 1-2 2H7a2 2 0 0 1-2-2V9a2 2 0 0 1 2-2h6Z" stroke="#3381FF" fill="none" stroke-linecap="round" stroke-linejoin="round"/></svg>
